assets/img/torus-login/facebook-color.svg

<svg width="32" height="32" viewBox="0 0 32 32" fill="none" xmlns="http://www.w3.org/2000/svg">
<path d="M32 16C32 7.164 24.836 0 16 0C7.164 0 0 7.164 0 16C0 23.986 5.85 30.606 13.5 31.806V20.626H9.438V16H13.5V12.476C13.5 8.466 15.888 6.25 19.544 6.25C21.294 6.25 23.126 6.562 23.126 6.562V10.5H21.108C19.12 10.5 18.5 11.734 18.5 12.998V16H22.938L22.228 20.626H18.5V31.806C26.15 30.606 32 23.986 32 16Z" fill="url(#paint0_linear)"/>
<path d="M22.9375 16H18.4995V12.998C18.4995 11.732 19.1195 10.5 21.1075 10.5H23.1255V6.562C23.1255 6.562 21.2935 6.25 19.5435 6.25C15.8875 6.25 13.4995 8.466 13.4995 12.476V16H9.4375V20.626H13.4995V31.806C14.3135 31.934 15.1495 32 15.9995 32C16.8495 32 17.6855 31.934 18.4995 31.806V20.626H22.2275L22.9375 16Z" fill="white"/>
<defs>
<linearGradient id="paint0_linear" x1="16" y1="31.8056" x2="16" y2="0" gradientUnits="userSpaceOnUse">
<stop stop-color="#1569CB"/>
<stop offset="1" stop-color="#29AEF3"/>
</linearGradient>
</defs>
</svg>

<svg width="32" height="32" fill="none" xmlns="http://www.w3.org/2000/svg"><path d="M32 16c0-8.836-7.164-16-16-16S0 7.164 0 16c0 7.986 5.85 14.606 13.5 15.806v-11.18H9.438V16H13.5v-3.524c0-4.01 2.388-6.226 6.044-6.226 1.75 0 3.582.312 3.582.312V10.5h-2.018c-1.988 0-2.608 1.234-2.608 2.498V16h4.438l-.71 4.626H18.5v11.18C26.15 30.606 32 23.986 32 16Z" fill="url(#a)"/><path d="M22.938 16H18.5v-3.002c0-1.266.62-2.498 2.608-2.498h2.017V6.562s-1.831-.312-3.581-.312c-3.657 0-6.045 2.216-6.045 6.226V16H9.438v4.626H13.5v11.18c.813.128 1.65.194 2.5.194.85 0 1.686-.066 2.5-.194v-11.18h3.727l.71-4.626Z" fill="#fff"/><defs><linearGradient id="a" x1="16" y1="31.806" x2="16" y2="0" gradientUnits="userSpaceOnUse"><stop stop-color="#1569CB"/><stop offset="1" stop-color="#29AEF3"/></linearGradient></defs></svg>
